X:1
T:In Storm, 12.12.12.12
T:In Storm, 12.12.12.12
T:Charles Edward Stephens, 1889
T:Public Domain Courtesy of the Cyber Hymnal™
C:Charles Edward Stephens, 1889
Z:Public Domain
Z:Courtesy of the Cyber Hymnal™
%%score ( 1 2 ) ( 3 4 )
L:1/8
Q:1/4=118
M:3/4
K:G
V:1 treble 
V:2 treble 
V:3 bass 
V:4 bass 
V:1
 [B,D]2 | [DB]3 [Ec] [DB]2 x | [CA]3 [DB] [CA]2 | [B,G]2 [DF]2 [CE]2 | [CE]2 [B,D]2 D2 | %5
 [CE]2 [CF]2 [B,G]2 | [DA]3 [DA] [DB]2 | [DA]2 [DB]2 [E^c]2 | [^Ce]2 [Dd]2 [Ed]2 | %9
 [Ec]3 [=Fd] [Ec]2 x | [DB]3 [Ec] [DB]2 x | [CA]2 E2 [EG]2 | [DG]2 [DF]2 [A,D]2 | %13
 [DG]3 [DA] [DB]2 | [Cc]2 [Gd]2 z2 | [Fe]6 | [FA]3 [Gc] [GB]2 x | [FA]6 | G4 |] %19
V:2
 x2 | x7 | x6 | x6 | x4 D2 | x6 | x6 | x6 | x6 | x7 | x7 | x2 E2 x2 | x6 | x6 | x6 | x6 | x7 | x6 | %18
 G4 |] %19
V:3
 [G,,G,]2 | G,3 z G, [G,,G,]2 | F,2 z E, [D,F,]2 | [E,G,]2 [B,,B,]2 [C,G,]2 | %4
 G,2 [G,,G,]2 [B,,G,]2 | [C,G,]2 [A,,A,]2 [E,G,]2 | [D,F,]3 [D,F,] [G,,G,]2 | %7
 [A,,F,]2 [A,,G,]2 [A,,G,]2 | [D,G,]2 F,2 [B,,^G,]2 | A,3 z A, [A,,A,]2 | ^G,3 z F, [E,G,]2 | %11
 A,2 [C,A,]2 [^C,A,]2 | [D,B,]2 [D,A,]2 F,2 | [B,,G,]3 [D,F,] G,2 | [E,G,]2 [B,,B,]2 z2 | [C,G,]6 | %16
 D3 z E [D,D]2 | [D,C]6 | [G,,B,]4 |] %19
V:4
 x2 | G,,2 G,,2 x3 | D,3 D,2 x | x6 | G,2 x4 | x6 | x6 | x6 | x2 (D,C,) x2 | A,,2 A,,2 x3 | %10
 E,2 E,2 x3 | A,2 x4 | x4 (D,C,) | x4 G,2 | x6 | x6 | D,2 D,2 x3 | x6 | x4 |] %19

